src/images/chat-admin.svg

<svg width="38" height="38" viewBox="0 0 38 38" fill="none" xmlns="http://www.w3.org/2000/svg">
<mask id="mask0_103_1980" style="mask-type:alpha" maskUnits="userSpaceOnUse" x="0" y="0" width="38" height="38">
<circle cx="19" cy="19" r="18.25" fill="white" stroke="#1C383C" stroke-width="1.5"/>
</mask>
<g mask="url(#mask0_103_1980)">
<g clip-path="url(#clip0_103_1980)">
<path d="M-13.5519 23.8743C-11.9424 28.7641 -8.75986 33.3641 -4.04098 35.5132C-0.814825 36.7785 2.63487 37.3902 6.10399 37.3122C13.7504 37.5561 21.4046 37.2373 29.0033 36.3584C35.1001 35.646 41.1968 35.7305 46.0742 31.3478C49.1212 28.5781 51.0601 24.8155 51.5369 20.7473C51.7532 18.2532 51.6136 15.7414 51.1223 13.2858C50.6102 10.2916 49.8054 7.33355 49.0616 4.42383C38.5874 4.42383 27.6377 6.98342 17.1147 7.71991C6.59173 8.45639 -4.06537 8.80653 -14.6615 8.92726C-14.9541 8.92726 -15.3321 8.92726 -15.4175 9.27739C-15.5029 9.62753 -15.1614 18.9725 -13.5519 23.8743Z" fill="#DADADA" stroke="#1C383C" stroke-width="1.5" stroke-miterlimit="10"/>
<path d="M-25.5503 5.78777C-25.6538 6.06608 -25.7007 6.36194 -25.6881 6.65827C-25.6756 6.95461 -25.6039 7.24555 -25.4771 7.51429C-25.1937 7.88023 -24.8217 8.16945 -24.3954 8.35517C-23.9691 8.5409 -23.5024 8.61711 -23.0384 8.57676C-21.2948 8.6492 -19.3194 8.57676 -19.3194 8.57676C-19.2943 8.96533 -19.1172 9.32892 -18.8258 9.5904C-18.5345 9.85187 -18.1517 9.99065 -17.7586 9.97729L51.9759 5.32897C52.376 5.30106 52.7489 5.11809 53.0136 4.81975C53.2784 4.52141 53.4138 4.13175 53.3903 3.73526L53.1099 -0.345594C53.0975 -0.541848 53.0459 -0.733717 52.9581 -0.910069C52.8702 -1.08642 52.7479 -1.24375 52.5982 -1.37291C52.4484 -1.50208 52.2743 -1.60051 52.0858 -1.66251C51.8974 -1.7245 51.6983 -1.74882 51.5003 -1.73405L42.4893 -1.13038C42.0798 -2.06359 41.4793 -2.90265 40.7259 -3.59462C39.9725 -4.2866 39.0824 -4.81649 38.1119 -5.15087C36.2613 -5.52523 34.3534 -5.52523 32.5029 -5.15087C21.6385 -3.59338 10.7985 -1.03379 -0.18784 -1.5288C-1.55614 -1.68302 -2.94182 -1.55978 -4.26046 -1.1666C-4.91518 -0.953742 -5.47775 -0.527515 -5.85642 0.0425696C-6.23508 0.612654 -6.4075 1.29296 -6.34555 1.97253C-6.35083 2.00045 -6.35083 2.02911 -6.34555 2.05704L-18.222 2.8539C-18.4255 2.86699 -18.6242 2.92139 -18.8056 3.01372C-18.987 3.10604 -19.1473 3.23432 -19.2765 3.39058C-19.4057 3.54683 -19.5011 3.72773 -19.5567 3.92203C-19.6124 4.11633 -19.627 4.31989 -19.5999 4.52005V4.91847C-20.8192 4.7253 -24.3919 4.37516 -24.8553 4.677C-25.2094 4.95675 -25.455 5.34919 -25.5503 5.78777Z" fill="#F49825" stroke="#1C383C" stroke-width="1.5" stroke-miterlimit="10"/>
<path d="M13.1518 12.3554C13.7311 12.6394 14.24 13.0463 14.6426 13.5471C15.0451 14.0479 15.3313 14.6303 15.4808 15.253C15.7673 16.5171 15.7673 17.8283 15.4808 19.0924C15.2192 20.7361 14.6307 22.312 13.7493 23.7286C12.8714 25.0567 11.3838 26.252 9.85958 25.8898C9.4264 25.7576 9.02749 25.5337 8.69058 25.2334C8.35367 24.9332 8.08683 24.5639 7.90862 24.1512C7.55024 23.307 7.37174 22.3986 7.3843 21.483C7.32333 18.6457 8.61584 10.3994 13.1518 12.3554Z" fill="white" stroke="#1C383C" stroke-width="1.5" stroke-miterlimit="10"/>
<path d="M25.5282 11.6436C26.2991 11.8829 26.9861 12.3328 27.5103 12.9415C28.0344 13.5502 28.3744 14.2931 28.4912 15.0846C28.6908 16.6745 28.455 18.2884 27.8084 19.757C27.3308 21.1206 26.547 22.359 25.516 23.3791C24.99 23.8742 24.3546 24.2412 23.6604 24.4507C22.9661 24.6603 22.2321 24.7068 21.5165 24.5865C20.9644 24.4794 20.4559 24.215 20.0533 23.8258C19.4834 23.1237 19.1697 22.2515 19.1632 21.3508C18.8827 18.115 20.5167 10.4604 25.5282 11.6436Z" fill="white" stroke="#1C383C" stroke-width="1.5" stroke-miterlimit="10"/>
<path d="M25.1502 15.7C24.8465 16.7837 24.4082 17.8259 23.8455 18.8029C23.3937 19.8492 22.6491 20.7457 21.6995 21.3866C21.467 21.542 21.1846 21.6065 20.9069 21.5677C20.7352 21.5036 20.5844 21.3944 20.4706 21.2519C20.3568 21.1094 20.2842 20.939 20.2606 20.7588C19.7839 19.1097 19.7503 17.3659 20.1631 15.7C20.3711 14.7429 20.8489 13.8638 21.5409 13.1645C22.114 12.6333 23.7724 11.7157 24.7113 12.3435C25.6502 12.9714 25.3331 14.879 25.1502 15.7Z" fill="#1C383C" stroke="#1C383C" stroke-width="1.5" stroke-miterlimit="10"/>
<path d="M11.6522 13.3701C12.0289 13.9451 12.1846 14.6348 12.0911 15.3139C11.9682 17.734 11.1191 20.0629 9.65243 22.0027C9.43295 22.2803 9.04276 22.5701 8.75012 22.3528C8.6682 22.273 8.60927 22.1729 8.57941 22.063C7.98085 19.9867 7.95559 17.7895 8.50625 15.7003C8.68915 14.6499 9.98166 11.2572 11.6522 13.3701Z" fill="#1C383C" stroke="#1C383C" stroke-width="1.5" stroke-miterlimit="10"/>
<path d="M18.7365 32.132C19.971 32.5036 21.2894 32.5022 22.5231 32.128C23.7568 31.7538 24.8498 31.0238 25.6623 30.0312" stroke="#1C383C" stroke-width="1.5" stroke-miterlimit="10"/>
<path d="M22.175 1.12724C26.9158 0.694887 31.6084 -0.153596 36.1975 -1.4082" stroke="#1C383C" stroke-width="1.5" stroke-miterlimit="10"/>
</g>
</g>
<circle cx="19" cy="19" r="18.25" stroke="#1C383C" stroke-width="1.5"/>
<defs>
<clipPath id="clip0_103_1980">
<rect width="80.2941" height="44.0322" fill="white" transform="translate(-26.2941 -6.03223)"/>
</clipPath>
</defs>
</svg>

<svg width="38" height="38" fill="none" xmlns="http://www.w3.org/2000/svg"><mask id="a" style="mask-type:alpha" maskUnits="userSpaceOnUse" x="0" y="0" width="38" height="38"><circle cx="19" cy="19" r="18.25" fill="#fff" stroke="#1C383C" stroke-width="1.5"/></mask><g clip-path="url(#b)" stroke="#1C383C" stroke-width="1.5" stroke-miterlimit="10" mask="url(#a)"><path d="M-13.5519 23.8743c1.6095 4.8898 4.792 9.4898 9.511 11.6389a26.1778 26.1778 0 0 0 10.1449 1.799 156.016 156.016 0 0 0 22.8993-.9538c6.0968-.7124 12.1935-.6279 17.0709-5.0106 3.047-2.7697 4.9859-6.5323 5.4627-10.6005a26.4017 26.4017 0 0 0-.4146-7.4615c-.5121-2.9942-1.3169-5.9523-2.0607-8.862-10.4742 0-21.4239 2.5596-31.9469 3.2961-10.523.7365-21.18 1.0866-31.7762 1.2074-.2926 0-.6706 0-.756.35-.0854.3502.2561 9.6952 1.8656 14.597Z" fill="#DADADA"/><path d="M-25.5503 5.7878a2.2258 2.2258 0 0 0 .0732 1.7265c.2834.366.6554.6551 1.0817.8409.4263.1857.893.262 1.357.2216 1.7436.0724 3.719 0 3.719 0 .0251.3885.2022.7521.4936 1.0136a1.5206 1.5206 0 0 0 1.0672.3869L51.9759 5.329a1.5294 1.5294 0 0 0 1.0377-.5092 1.4997 1.4997 0 0 0 .3767-1.0845l-.2804-4.0809a1.4751 1.4751 0 0 0-.1518-.5645 1.4882 1.4882 0 0 0-.3599-.4628 1.5042 1.5042 0 0 0-.5124-.2896 1.5137 1.5137 0 0 0-.5855-.0716l-9.011.6037a7.3651 7.3651 0 0 0-1.7634-2.4642 7.453 7.453 0 0 0-2.614-1.5563 14.1469 14.1469 0 0 0-5.609 0C21.6385-3.5934 10.7985-1.0338-.1878-1.5288a10.2413 10.2413 0 0 0-4.0727.3622A3.045 3.045 0 0 0-5.8565.0426a2.9955 2.9955 0 0 0-.489 1.93.2274.2274 0 0 0 0 .0844l-11.8765.7969a1.499 1.499 0 0 0-.5836.1598 1.4846 1.4846 0 0 0-.4709.3769 1.4677 1.4677 0 0 0-.2802.5314 1.4592 1.4592 0 0 0-.0432.598v.3985c-1.2193-.1932-4.792-.5433-5.2554-.2415a1.9417 1.9417 0 0 0-.695 1.1108Z" fill="#F49825"/><path d="M13.1518 12.3554a4.394 4.394 0 0 1 1.4908 1.1917 4.3408 4.3408 0 0 1 .8382 1.7059 8.6828 8.6828 0 0 1 0 3.8394 12.4921 12.4921 0 0 1-1.7315 4.6362c-.8779 1.3281-2.3655 2.5234-3.8897 2.1612a3.1293 3.1293 0 0 1-1.169-.6564 3.0912 3.0912 0 0 1-.782-1.0822 6.5957 6.5957 0 0 1-.5243-2.6682c-.061-2.8373 1.2315-11.0836 5.7675-9.1276ZM25.5282 11.6436a4.2957 4.2957 0 0 1 1.9821 1.2979 4.2315 4.2315 0 0 1 .9809 2.1431 8.8548 8.8548 0 0 1-.6828 4.6724 9.526 9.526 0 0 1-2.2924 3.6221 4.68 4.68 0 0 1-1.8556 1.0716 4.715 4.715 0 0 1-2.1439.1358 2.8994 2.8994 0 0 1-1.4632-.7607 3.9722 3.9722 0 0 1-.8901-2.475c-.2805-3.2358 1.3535-10.8904 6.365-9.7072Z" fill="#fff"/><path d="M25.1502 15.7a13.5356 13.5356 0 0 1-1.3047 3.1029 5.9778 5.9778 0 0 1-2.146 2.5837 1.1424 1.1424 0 0 1-.7926.1811 1.0104 1.0104 0 0 1-.4363-.3158.9978.9978 0 0 1-.21-.4931 9.7589 9.7589 0 0 1-.0975-5.0588 5.1647 5.1647 0 0 1 1.3778-2.5355c.5731-.5312 2.2315-1.4488 3.1704-.821.9389.6279.6218 2.5355.4389 3.3565ZM11.6522 13.3701a2.8389 2.8389 0 0 1 .4389 1.9438c-.1229 2.4201-.972 4.749-2.4387 6.6888-.2195.2776-.6096.5674-.9023.3501a.6384.6384 0 0 1-.1707-.2898 11.9587 11.9587 0 0 1-.0732-6.3627c.183-1.0504 1.4755-4.4431 3.146-2.3302Z" fill="#1C383C"/><path d="M18.7365 32.132a6.5483 6.5483 0 0 0 3.7866-.004c1.2337-.3742 2.3267-1.1042 3.1392-2.0968M22.175 1.1272a81.1094 81.1094 0 0 0 14.0225-2.5354"/></g><circle cx="19" cy="19" r="18.25" stroke="#1C383C" stroke-width="1.5"/><defs><clipPath id="b"><path fill="#fff" transform="translate(-26.2941 -6.0322)" d="M0 0h80.2941v44.0322H0z"/></clipPath></defs></svg>
